dist/static/images/common/header/scroll-btn.svg

<svg width="36" height="64" viewBox="0 0 36 64" fill="none" xmlns="http://www.w3.org/2000/svg">
<path fill-rule="evenodd" clip-rule="evenodd" d="M33 46V18C33 9.71573 26.2843 3 18 3C9.71573 3 3 9.71573 3 18V46C3 54.2843 9.71573 61 18 61C26.2843 61 33 54.2843 33 46ZM18 0C8.05888 0 0 8.05888 0 18V46C0 55.9411 8.05888 64 18 64C27.9411 64 36 55.9411 36 46V18C36 8.05888 27.9411 0 18 0Z" fill="white"/>
<path d="M15 17C15 15.3431 16.3431 14 18 14V14C19.6569 14 21 15.3431 21 17V25C21 26.6569 19.6569 28 18 28V28C16.3431 28 15 26.6569 15 25V17Z" fill="white"/>
</svg>

<svg width="36" height="64" fill="none" xmlns="http://www.w3.org/2000/svg"><path fill-rule="evenodd" clip-rule="evenodd" d="M33 46V18c0-8.284-6.716-15-15-15C9.716 3 3 9.716 3 18v28c0 8.284 6.716 15 15 15 8.284 0 15-6.716 15-15zM18 0C8.059 0 0 8.059 0 18v28c0 9.941 8.059 18 18 18s18-8.059 18-18V18c0-9.941-8.059-18-18-18z" fill="#fff"/><path d="M15 17a3 3 0 116 0v8a3 3 0 11-6 0v-8z" fill="#fff"/></svg>
